icons-common/repeat.svg

<svg height="1em" width="auto" viewBox="0 0 105 105" fill="currentColor" xmlns="http://www.w3.org/2000/svg">
    <path d="M75.7475 19.3201L56.9114 25.305L59.8224 20.0041L64.7883 39.1129C65.302 41.1221 64.1034 43.174 62.0913 43.687C60.1649 44.2 58.1957 43.0885 57.5963 41.2076L51.603 22.3981C50.8753 20.1324 52.2024 17.6957 54.5141 17.0972L73.6499 12.1383C78.2733 10.9413 80.2853 17.8667 75.7475 19.3201Z"
          />
    <path d="M62.7335 21.4998C83.1107 26.8434 91.9723 53.818 78.8298 70.2763C76.2184 74.5512 61.1495 86.9057 58.11 78.9544C57.5535 77.0734 58.6238 75.0642 60.4218 74.423C75.2338 69.5069 81.484 50.1416 72.1943 37.6162C69.2833 33.5978 65.1736 30.3916 60.4218 28.6817C55.9696 27.0572 58.1529 20.3029 62.7335 21.5426V21.4998Z"
          />
    <path d="M30.2838 83.7L49.1199 77.7151L46.2088 83.016L41.243 63.9072C40.7292 61.898 41.9279 59.8461 43.94 59.3331C45.8664 58.8201 47.8356 59.9316 48.4349 61.8125L54.4282 80.6221C55.156 82.8878 53.8289 85.3244 51.5172 85.9229L32.3814 90.8818C27.758 92.0788 25.746 85.1535 30.2838 83.7Z"
          />
    <path d="M43.2979 81.5196C22.9206 76.1759 14.0591 49.2014 27.2015 32.743C29.8129 28.4681 44.8818 16.1137 47.9213 24.065C48.4778 25.946 47.4076 27.9552 45.6096 28.5964C30.7975 33.5553 24.5046 52.9205 33.837 65.446C36.748 69.4644 40.8577 72.6705 45.6096 74.3805C50.0617 76.0049 47.8785 82.7593 43.2979 81.5196Z"
          />
</svg>

<svg xmlns="http://www.w3.org/2000/svg" width="auto" height="1em" fill="currentColor" viewBox="0 0 105 105">
    <path d="M75.748 19.32 56.91 25.305l2.911-5.3 4.966 19.108c.514 2.01-.685 4.061-2.697 4.574-1.926.513-3.895-.598-4.495-2.48l-5.993-18.809c-.728-2.266.6-4.702 2.911-5.3l19.136-4.96c4.623-1.197 6.635 5.729 2.097 7.182"/>
    <path d="M62.734 21.5C83.11 26.843 91.971 53.818 78.83 70.276c-2.612 4.275-17.68 16.63-20.72 8.678-.556-1.88.514-3.89 2.312-4.531 14.812-4.916 21.062-24.281 11.772-36.807-2.91-4.018-7.02-7.224-11.772-8.934-4.452-1.625-2.27-8.38 2.312-7.14zm-32.45 62.2 18.836-5.985-2.911 5.301-4.966-19.109c-.514-2.009.685-4.06 2.697-4.574 1.926-.513 3.896.599 4.495 2.48l5.993 18.81c.728 2.265-.6 4.701-2.91 5.3L32.38 90.882c-4.623 1.197-6.635-5.729-2.097-7.182"/>
    <path d="M43.298 81.52C22.92 76.176 14.059 49.2 27.2 32.743c2.612-4.275 17.68-16.63 20.72-8.678.557 1.881-.513 3.89-2.311 4.531-14.812 4.96-21.105 24.324-11.773 36.85 2.911 4.018 7.02 7.225 11.773 8.935 4.452 1.624 2.269 8.378-2.312 7.139"/>
</svg>
